dist/img/sprites/dbServer.svg

<svg width="99" height="55" viewBox="0 0 99 55" fill="none" xmlns="http://www.w3.org/2000/svg">
<rect width="99" height="55" fill="white"/>
<path d="M25.9783 14.2939C26.138 16.9336 28.2867 18.9051 30.9293 19.0018C34.5606 19.1348 40.6236 19.277 49.9453 19.277C59.2669 19.277 65.3301 19.1348 68.9612 19.0018C71.6039 18.9051 73.7526 16.9336 73.9123 14.2939C73.9691 13.3545 74.0078 12.3232 74.0078 11.2562C74.0078 10.1892 73.9691 9.15775 73.9123 8.2184C73.7526 5.57883 71.6039 3.60728 68.9612 3.51052C65.3301 3.37758 59.2669 3.23535 49.9453 3.23535C40.6237 3.23535 34.5606 3.37758 30.9293 3.51052C28.2867 3.60728 26.138 5.57884 25.9783 8.21841C25.9215 9.15776 25.8828 10.1892 25.8828 11.2562C25.8828 12.3232 25.9215 13.3547 25.9783 14.2939Z" stroke="#4B8125" stroke-width="3" stroke-linecap="round" stroke-linejoin="round"/>
<path d="M25.9783 30.3354C26.138 32.9751 28.2867 34.9466 30.9293 35.0433C34.5606 35.1763 40.6236 35.3185 49.9453 35.3185C59.2669 35.3185 65.3301 35.1763 68.9612 35.0433C71.6039 34.9466 73.7526 32.9751 73.9123 30.3354C73.9691 29.3961 74.0078 28.3647 74.0078 27.2977C74.0078 26.2307 73.9691 25.1992 73.9123 24.2599C73.7526 21.6203 71.6039 19.6488 68.9612 19.5521C65.3301 19.4191 59.2669 19.2769 49.9453 19.2769C40.6237 19.2769 34.5606 19.4191 30.9293 19.5521C28.2867 19.6488 26.138 21.6203 25.9783 24.26C25.9215 25.1992 25.8828 26.2307 25.8828 27.2977C25.8828 28.3647 25.9215 29.3962 25.9783 30.3354Z" stroke="#4B8125" stroke-width="3" stroke-linecap="round" stroke-linejoin="round"/>
<path d="M65.987 11.2563H43.0703" stroke="#4B8125" stroke-width="3" stroke-linecap="round" stroke-linejoin="round"/>
<path d="M66.2702 27.1768H43.3535" stroke="#4B8125" stroke-width="3" stroke-linecap="round" stroke-linejoin="round"/>
<path d="M35.0579 11.2559H33.9121" stroke="#4B8125" stroke-width="3" stroke-linecap="round" stroke-linejoin="round"/>
<path d="M35.0482 27.2979H33.9023" stroke="#4B8125" stroke-width="3" stroke-linecap="round" stroke-linejoin="round"/>
<path d="M49.9551 35.3188V42.1938" stroke="#4B8125" stroke-width="3" stroke-linecap="round" stroke-linejoin="round"/>
<path d="M45.3704 46.7773H37.3496" stroke="#4B8125" stroke-width="3" stroke-linecap="round" stroke-linejoin="round"/>
<path d="M62.5579 46.7773H54.5371" stroke="#4B8125" stroke-width="3" stroke-linecap="round" stroke-linejoin="round"/>
<path d="M49.9544 51.3605C52.4857 51.3605 54.5378 49.3085 54.5378 46.7772C54.5378 44.2459 52.4857 42.1938 49.9544 42.1938C47.4231 42.1938 45.3711 44.2459 45.3711 46.7772C45.3711 49.3085 47.4231 51.3605 49.9544 51.3605Z" stroke="#4B8125" stroke-width="3" stroke-linecap="round" stroke-linejoin="round"/>
</svg>

<svg width="99" height="55" viewBox="0 0 99 55" fill="none" xmlns="http://www.w3.org/2000/svg"><path fill="#fff" d="M0 0h99v55H0z"/><path d="M25.978 14.294c.16 2.64 2.309 4.611 4.951 4.708 3.632.133 9.695.275 19.016.275 9.322 0 15.385-.142 19.016-.275 2.643-.097 4.792-2.068 4.951-4.708.057-.94.096-1.97.096-3.038a50.62 50.62 0 00-.096-3.038c-.16-2.64-2.308-4.61-4.95-4.707-3.632-.133-9.695-.276-19.017-.276-9.321 0-15.384.143-19.016.276-2.642.096-4.791 2.068-4.95 4.707a50.62 50.62 0 00-.096 3.038c0 1.067.039 2.099.095 3.038zm0 16.041c.16 2.64 2.309 4.612 4.951 4.708 3.632.133 9.695.276 19.016.276 9.322 0 15.385-.143 19.016-.276 2.643-.096 4.792-2.068 4.951-4.708.057-.939.096-1.97.096-3.037s-.039-2.099-.096-3.038c-.16-2.64-2.308-4.611-4.95-4.708-3.632-.133-9.695-.275-19.017-.275-9.321 0-15.384.142-19.016.275-2.642.097-4.791 2.068-4.95 4.708-.057.94-.096 1.97-.096 3.038 0 1.067.039 2.098.095 3.037zm40.009-19.079H43.07m23.2 15.921H43.354m-8.296-15.921h-1.146m1.136 16.042h-1.146m16.053 8.021v6.875m-4.585 4.583h-8.02m25.208 0h-8.02m-4.584 4.583a4.583 4.583 0 100-9.166 4.583 4.583 0 000 9.166z" stroke="#4B8125" stroke-width="3" stroke-linecap="round" stroke-linejoin="round"/></svg>
